X:103
T:Crooked Stovepipe
M:C|
L:1/4
K:G
D|:"G"GB B/c/ d/B/|GB B/c/ d/B/|GBeB|"D"dc c3/2 A/|
FA A/B/ c/A/| FA A/B/ c/d/|edef|1"G"g [Bg][Bg]D:|[2"G"g [Bg][Bg]a||
 |:b2 ba|g3/2g/ gf|"C"eefg|"A7"a2 ab|
"D"c'2 c'a|f3/2 f/fe|d^def|"G"g^ga^a|
"G"b2 ba| g3/2 g/ gf|"C"eefg|"A7"a2 ab|
"D"c'2 c'a| f3/2 f/ fe|d^def|[1"G"[G,g][Bg][Bg]a:|[2"G"[G,g][Bg][B2g2]|]
